!!! OTL: Berkowitz569
!!! Chapter: 1
!!! Section: V
!!! Page: 144
!!! Mode: 
!!! Encoder: DJB
**kern
*staff1
*I"Piano
=1-
*clefF4
*k[]
*C:
*M4/4
4E-\
[4B-\
8B-\L]
8A-\
8B-\
8c\J
=2
*M5/4
8d-\L
8A-\J
4E-\
8En\L
8B\J
8.B-\L
16A-\Jk
4dn\
=3
*M3/4
4c#\
2r
=4
8B\L
8E\J
8F#\L
8C#\J
4G#\
=5
2D#\
4r
=6
*M4/4
8E\L 8A\J
4D\
8E\
8B\
4B-\
=7
!!linebreak:original
8A\L
8F\
8G\
8F\J
4.C/
8F\
=8
2.E\
4r
==
*-
